X: 1301
T: An Irish Summer
R: jig
M: 6/8
K: Eminor
|:EAA EAB|c2 g e3|deg edB|AGE GED|
EAA EAB|c2 g e3deg edB|1 AGE A2 G:|2 AGE ABd||
e2 a g2 a|f2 g e3|deg edB|AGE ged|
eaa g2 g|f2 f e3|deg edB|AGE ABd|
e2 a g2 g|f2 f e3|deg edB|AGE GGF|
EAA EAB|c2 g e3|deg edB|AGE A2 G||

